X: 531
T: Dağda Tavşanlar Uyur
C: Tanburî Cemil Bey
O: Turkey
F: http://compmusic.upf.edu/node/140
N: hicaz--ninni--sofyan--dagda_tavsanlar--tanburi_cemil_bey
N: makam= hicaz
N: form= ninni
N: usul= sofyan = 4/4
M: 4/4
L: 1/16
K: C _7/8B ^f ^c 
Q: 1/4=60
%%MIDI tuningsystem comma53
G2G2 A2A2 A^3/4cBA A2z2  | d2^3/4cd =fedc d6z2  | \
w:  Dağ da  tav şan lar  *  u *  yur   |  nin *  *  *  *  *  *  ni    | 
^3/4c2d2 e2=fa gfed cBA_3/4B  | 
w:  Ev de  ko şan *  lar  *  u *  yur   | 
^3/4c4 edc_3/4B A6z2  | dede ^3/4cd_3/4Bc A4 B4  | \
w:  nin *  *  *  *  ni    |  Be *  nim  *  yav *  rum  *  u yu  | 
^3/4c4 dedc _3/4BcBA B4  | 
w:  maz  nin *  *  *  *  *  *  *  ni    | 
G2G2 A2A2 A2_3/4B2 d2^3/4c2  | ^3/4c2_3/4Bc B2A2 A8  | \
w:  U yu sun  da  bü yü sün   |  nin *  *  *  *  ni    | 
G2G2 A2A2 A^3/4cBA A2z2  | 
w:  Dağ da  tav şan lar  *  u *  yur   | 
d2^3/4cd =fedc d6z2  | ^3/4c2d2 e2=fa gfed cBA_3/4B  | 
w:  nin *  *  *  *  *  *  ni    |  Ev de  ko şan *  lar  *  u *  yur   | 
^3/4c4 edc_3/4B A6z2  | dede ^3/4cd_3/4Bc A4 B4  | \
w:  nin *  *  *  *  ni    |  Be *  nim  *  yav *  rum  *  u yu  | 
^3/4c4 dedc _3/4BcBA B4  | 
w:  maz  nin *  *  *  *  *  *  *  ni    | 
G2G2 A2A2 A2_3/4B2 d2^3/4c2  | ^3/4c2_3/4Bc B2A2 A8  | |


